!!!CDT:
!!!PTL: Il secondo libro de madrigali a cinque voci
!!!PPP: Venice
!!!PPR: Heirs of G. Scotto
!!!PDT: 1599
!!!PUB-format:
!!!RISM: 1599-16
!!!rime: 256
!!!AGN: Madrigal
!!!SCT: Trm0256d
!!!SCA: Trm0256d
!!!original-voices: 5
!!!extant-voices: 1
!!!complete: N
!!!final: A?
!!!COM: Nanino, Giovanni Bernardino
!!!OTL: Amor, che qui d'intorno
**kern	**text
*part1	*part1
*staff1	*staff1
*I"Tenore	*
*I'T	*
*clefGv2	*
*k[]	*
*M4/2	*
*omet(C)	*
=1	=1
0r	.
=2	=2
1r	.
2e	A-
2a	-mor,
=3	=3
4A	che
4c	qui
4B	d'in-
4.c	-tor-
8dL	.
8e	.
8fJ	.
4g	.
8fL	.
8eJ	.
=4	=4
4f	.
8eL	.
8dJ	.
8cL	.
8d	.
8e	.
8cJ	.
2d	.
2c	-no
=5	=5
0r	.
=6	=6
4r	.
4c	Hor
4B	fai
4c	ben
4A	mille
4B	scherz'e
4c	mil-
4A	-le
=7	=7
4F	gi-
4G	.
8AL	.
8B	.
8c	.
8dJ	.
4e	.
8dL	.
8cJ	.
4d	.
8cL	.
8BJ	.
=8	=8
2A	.
2e	-ri,
4r	.
4a	Hor
4g#X	fai
4a	ben
=9	=9
4f#X	mil-
4g#i	-le
4a	scher-
4fnXi	-z'e
4e	mil-
4d	-le
2e	gi-
=10	=10
1A	-ri
2a	S'ar-
2gnX	-di-
=11	=11
4e	-sci
2e	nu-
4e	-me-
2e	-rar
[2f	tan-
=12	=12
2f]	.
1g	-te
2c	mie
=13	=13
2d	pe-
2d	-ne,
2r	.
[2a	tan-
=14	=14
2a]	.
2g	-te
2g	mie
[2f	pe-
=15	=15
2f]	.
4e	.
4d	.
1c#X	.
=16	=16
1d	.
2e	-ne
4r	.
4A	E
=17	=17
2d	tan-
2c#X	-ti,
4r	.
4d	E
2a	tan-
=18	=18
4f	-ti
4d	miei
4r	.
4A	so-
2d	-spi-
2c#X	-ri,
=19	=19
4r	.
4A	E
4.A	tan-
8B	-ti
4cnXi	miei
4A	so-
2A	-spi-
=20	=20
2B	-ri,
2d	Che
1d	son
=21	=21
4r	.
4.c	più
8dL	.
8e	.
8fJ	.
2g	.
8aL	che
8g	.
8f	.
8eJ	.
=22	=22
4d	.
4c	l'a-
2d	-re-
2e	-ne,
2r	.
=23	=23
2r	.
4r	.
2g	Più
4f#X	che
4.g	l'on-
8fnXi	.
=24	=24
2e	.
4c	-de
4d	del
2G	mar,
4r	.
[4g	Più
=25	=25
8g]L	.
8f	.
8e	.
8dJ	.
4c	.
4d	che
4d	l'on-
8cL	.
8BJ	.
2A	.
=26	=26
4B	-de
4B	del
4A	mar,
4e	più
4f	che
4f	le
2e	stel-
=27	=27
4e	-le,
4A	più
4d	che
4d	le
1e	stel-
=28	=28
1A	-le,
1r	.
=29	=29
2r	.
4r	.
4e	Rac-
2g	-con-
4f	-ta a
[4d	la
=30	=30
4d]	.
4e	mia
2f	don-
2e	-na
4r	.
[4g	e
=31	=31
4g]	.
2d	que-
4e	-ste e
2f	quel-
[2g	-le;
=32	=32
4g]	.
4g	E
4e	di'
4g	ch'io
2f	vi-
2e	-vo,
=33	=33
4r	.
4f	E
4g	di'
4g	ch'io
2f	vi-
4e	-v'ac-
[4e	-ciò
=34	=34
4e]	.
4d	che
4g	re-
4c	-sti in
2f	vi-
2g	-ta,
=35	=35
2r	.
4r	.
4f	ac-
2e	-ciò
4A	che
[4B	re-
=36	=36
4B]	.
4c#X	-sti in
2d	vi-
1e	-ta
=37	=37
1.a	La
2e	mia
=38	=38
2.e	do-
4f	.
[1g	.
=39	=39
2g]	.
1d	-glia in-
2B	-fi-
=40	=40
2.c	-ni-
4d	.
1e	.
=41	=41
1A	-ta,
1r	.
=42	=42
1.e	La
2B	mia
=43	=43
2.B	do-
4c	.
1d	.
=44	=44
2d	-glia in-
2d	-fi-
*lig	*
1c	-ni-
=45	=45
1B	.
*Xlig	*
1Al	-ta.
==	==
*-	*-
!!!RDF**kern: i = editorial accidental
!!!RDF**kern: l = terminal long
!!!ENC: Emiliano Ricciardi
!!!END: 2018
!!!EED: Ricciardi, Emiliano
!!!EEV: 2018/09/18
!!!YEC: Copyright 2018 Emiliano Ricciardi, All Rights Reserved
!!!ONB: Translated from MusicXML on 2018/09/18 and edited by Craig Stuart Sapp
!!@@BEGIN:	VERSEDATA
!!@SOLERTI:	256
!!@CATALOGNUM:	Trm0256
!!@LAST_MODIFIED: 2020/07/12
!!@TITLE:		Amor, che qui d'intorno
!!@GENRE:		madrigale
!!@MANUSRC:	E<sub>1</sub>, F<sub>2</sub>, V<sub>13/E1</sub>
!!@PRINTSRC:	27, 70, 141, 166, 169
!!@@BEGIN:	VERSES
!!@ABOUTIT:
!!@ABOUTEN:
!!@EDITOR:	Solerti, Angelo
!!@EDITION_TITLE: Le Rime di Torquato Tasso
!!@EDITION_LOC:	Bologna
!!@EDITION_PUB:	Romagnoli-Dall’Acqua
!!@EDITION_DATE:  1898-1902
!!@EDITION_VOL:	2
!!@EDITION_PAGE:  256
!!@TRANSLATOR:	Emiliano Ricciardi and Amyrose McCue Gill
!!@VERSE:
!!	Amor, che qui d'intorno
!!	Or fai ben mille scherzi e mille giri,
!!	S'ardisci numerar tante mie pene
!!	E tanti miei sospiri,
!!	Che son più de le arene,
!!	Più de l'onde del mar, più de le stelle,
!!	Racconta a la mia donna e queste e quelle;
!!	E di' ch'io vivo a ciò che resti in vita
!!	La mia doglia infinita.
!!@TVERSE:
!!	[You], Love, who around here
!!	Now make a least a thousand tricks and a thousand glances,
!!	If you dare to count my many pains
!!	And my many sighs,
!!	Which number more than grains of sand,
!!	More than the waves of the sea, more than the Stars,
!!	Tell my lady of all these;
!!	And say that I live so that
!!	My infinite pain remains alive.
!!@@END:		VERSES
!!@OTHER_CRIT_ED:   None
!!@ATTRIBUTION_ABOUT:	Secure
!!		<br>
!!		Among other sources (see Literary Sources), this poem appears in the authoritative manuscript It. 385, Biblioteca Estense Universitaria, Modena.
!!@DATING:	Mid-1580s or earlier
!!@DEDICATEE:
!!@COMMENTARY:
!!@@END:		VERSEDATA
!!@@BEGIN:	SETTING
!!@CATALOGNUM:	Trm0256d
!!@RIMETITLE:	Amor, che qui d'intorno
!!@SOLERTI:	256
!!@COMPOSER:	Nanino, Giovanni Bernardino
!!@PRINCEPSTITLE:	Il secondo libro de madrigali a cinque voci
!!@PRINCEPSLOC:	Venetia
!!@NORMLOC:	Venice
!!@NORMPUB:	Heirs of G. Scotto
!!@NORMPUBSHORT:	Scotto
!!@PRINCEPSPUB:	Heredi di Scotto
!!@PRINCEPSYEAR:	1599
!!@PRINCEPSRISM:	1599-16
!!@REPRINTS:	
!!@OVOICES:	5
!!@EXTANTVOICES:	1
!!@PARTBOOKS:	
!!@EXTPARTBOOKS:	
!!@OCLEFS:	C3
!!@OMENSURATION:	C
!!@OKEYSIG:	-
!!@FINAL:	A?
!!@TIMPEDITOR:	Ricciardi, Emiliano
!!@NOTE:		
!!@@END:		SETTING
